X:1
T: Lady John Scott
C:William Marshall
R:Strathspey
Q: 128
K:A
M:4/4
L:1/16
|:AE3 A3c B3A Bc3|ec3 B3A B3A F4|AE3 A3c B3A Bc3|ec3 B3c AAA2 A4|
AE3 A3c B3A Bc3|ec3 B3A B3A F4|AE3 A3c B3A Bc3|ec3 B3c AAA2 A4|
Aaga fedc defe dcBA|Bcdc dcBA B3A F4|Aaga fedc defg ac3|B3A Bc3 AAA2 A4|
Aaga fedc defe dcBA|Bcdc dcBA B3A F4|AE3 A3c B3A Bc3|e3c B3c AAA2 A4:|
